img/sprites/tel.svg

<svg width="28" height="28" viewBox="0 0 28 28" fill="none" xmlns="http://www.w3.org/2000/svg">
<path d="M27.5 14C27.5 21.4558 21.4558 27.5 14 27.5C6.54416 27.5 0.5 21.4558 0.5 14C0.5 6.54416 6.54416 0.5 14 0.5C21.4558 0.5 27.5 6.54416 27.5 14Z" stroke="white"/>
<path d="M6.70872 12.541L20.207 7.067C20.8335 6.82894 21.3807 7.22774 21.1777 8.22413L21.1789 8.22291L18.8805 19.6114C18.7102 20.4189 18.254 20.6152 17.6159 20.2348L14.1159 17.5217L12.4277 19.2323C12.241 19.4286 12.0835 19.5943 11.7219 19.5943L11.9704 15.848L18.457 9.68436C18.7394 9.42299 18.394 9.27574 18.0219 9.53588L10.0057 14.8442L6.55005 13.7104C5.79989 13.4601 5.78355 12.9214 6.70872 12.541Z" fill="white"/>
</svg>

<svg width="28" height="28" viewBox="0 0 28 28" fill="none" xmlns="http://www.w3.org/2000/svg"><path d="M27.5 14c0 7.456-6.044 13.5-13.5 13.5S.5 21.456.5 14 6.544.5 14 .5 27.5 6.544 27.5 14z" stroke="#fff"/><path d="M6.709 12.541l13.498-5.474c.627-.238 1.174.16.97 1.157l.002-.001L18.88 19.61c-.17.808-.627 1.004-1.265.624l-3.5-2.713-1.688 1.71c-.187.197-.345.362-.706.362l.248-3.746 6.487-6.164c.282-.261-.063-.408-.435-.148l-8.016 5.308L6.55 13.71c-.75-.25-.766-.789.159-1.169z" fill="#fff"/></svg>
